app/img/svg/icon-heart.svg

<svg xmlns="http://www.w3.org/2000/svg" width="26" height="24"><defs><clipPath id="cp1"><path d="M0 0h25v24H0z"/></clipPath></defs><style></style><g id="Page 1" clip-path="url(#cp1)"><path id="Path 1" fill-rule="evenodd" d="M12.47 24c-.42 0-.82-.18-1.1-.5-7.6-8.65-9.29-10.59-9.72-11.14h-.01A7.7 7.7 0 0 1 0 7.62C0 3.43 3.41.02 7.6.02c1.86 0 3.6.64 4.97 1.8a7.667 7.667 0 0 1 4.92-1.8c4.19 0 7.6 3.41 7.6 7.6 0 1.82-.64 3.51-1.79 4.76L13.58 23.5c-.28.32-.69.5-1.11.5zM3.98 10.59c.42.51 4.94 5.68 8.49 9.71l8.64-9.88c.68-.74 1.04-1.72 1.04-2.8 0-2.57-2.09-4.66-4.66-4.66-1.46 0-2.84.68-3.8 1.88-.28.36-.7.54-1.17.55-.45 0-.88-.22-1.15-.59-.88-1.17-2.26-1.84-3.77-1.84-2.57 0-4.66 2.09-4.66 4.66 0 1.35.55 2.34 1.01 2.93.01.01.02.02.03.04z"/></g></svg>

<svg xmlns="http://www.w3.org/2000/svg" viewBox="0 0 26 24" width="26" height="24">
	<defs>
		<clipPath clipPathUnits="userSpaceOnUse" id="cp1">
			<path d="M0 0L25 0L25 24L0 24Z" />
		</clipPath>
	</defs>
	<style>
		tspan { white-space:pre }
		.shp0 { fill: #000000 } 
	</style>
	<g id="Page 1" clip-path="url(#cp1)">
		<path id="Path 1" fill-rule="evenodd" class="shp0" d="M12.47 24C12.05 24 11.65 23.82 11.37 23.5C3.77 14.85 2.08 12.91 1.65 12.36L1.64 12.36C0.58 11.01 0 9.33 0 7.62C0 3.43 3.41 0.02 7.6 0.02C9.46 0.02 11.2 0.66 12.57 1.82C13.96 0.66 15.69 0.02 17.49 0.02C21.68 0.02 25.09 3.43 25.09 7.62C25.09 9.44 24.45 11.13 23.3 12.38L13.58 23.5C13.3 23.82 12.89 24 12.47 24L12.47 24ZM3.98 10.59C4.4 11.1 8.92 16.27 12.47 20.3L21.11 10.42C21.79 9.68 22.15 8.7 22.15 7.62C22.15 5.05 20.06 2.96 17.49 2.96C16.03 2.96 14.65 3.64 13.69 4.84C13.41 5.2 12.99 5.38 12.52 5.39C12.07 5.39 11.64 5.17 11.37 4.8C10.49 3.63 9.11 2.96 7.6 2.96C5.03 2.96 2.94 5.05 2.94 7.62C2.94 8.97 3.49 9.96 3.95 10.55C3.96 10.56 3.97 10.57 3.98 10.59Z" />
	</g>
</svg>
